X: 24418
T: Low C Tune
R: jig
M: 6/8
K: Gmajor
|:DED BcB|AGA BGE|D(3DDD AGA|BdB AGE|
DEDB3|AGA BGE|D(3DDD AGA|BGF G3:|
|:B2d dBd|~g3 edB|c2e ece|gag fed|
Bdd dBd|g2z edB|cde ABc|DEF G3:|

